src/sponsor_logos/skf.svg

<svg xmlns="http://www.w3.org/2000/svg" xml:space="preserve" style="fill-rule:evenodd;clip-rule:evenodd;stroke-linejoin:round;stroke-miterlimit:2" viewBox="0 0 28 7"><path d="M118.698 32.941a.24.24 0 0 0 .241-.239v-3.503a.24.24 0 0 0-.241-.238h-4.406a.16.16 0 0 1-.16-.16v-1.273a.16.16 0 0 1 .16-.16h1.282a.16.16 0 0 1 .159.16v.398a.24.24 0 0 0 .242.239h1.922a.24.24 0 0 0 .241-.239v-1.115a.24.24 0 0 0-.241-.238h-5.93a.24.24 0 0 0-.24.238v2.706c0 .133.108.24.24.24h4.408a.16.16 0 0 1 .16.159v2.07a.16.16 0 0 1-.16.159h-2.885a.16.16 0 0 1-.159-.159v-1.195a.24.24 0 0 0-.241-.238h-1.922a.24.24 0 0 0-.242.238v1.911a.24.24 0 0 0 .242.239m11.776-2.287a.04.04 0 0 1 .04-.04.04.04 0 0 1 .028.011l2.261 2.248c.013.012.072.068.168.068h2.87a.24.24 0 0 0 .242-.239v-1.91a.24.24 0 0 0-.242-.238h-2.071a.24.24 0 0 1-.165-.066l-1.508-1.499a.04.04 0 0 1-.012-.028q0-.018.012-.028l.701-.7a.25.25 0 0 1 .169-.068h2.074a.24.24 0 0 0 .24-.239v-1.115a.24.24 0 0 0-.24-.238h-2.07a.24.24 0 0 0-.168.067l-2.261 2.248a.04.04 0 0 1-.028.012.04.04 0 0 1-.04-.041v-2.048a.24.24 0 0 0-.24-.238h-2.323a.24.24 0 0 0-.24.238v1.911a.24.24 0 0 0 .24.239c.089 0 .16.071.16.158v1.275a.16.16 0 0 1-.16.159.24.24 0 0 0-.24.238v1.911a.24.24 0 0 0 .24.239h2.323a.24.24 0 0 0 .24-.239m9.372.239a.24.24 0 0 0 .241-.239v-1.911a.24.24 0 0 0-.241-.238.16.16 0 0 1-.16-.159v-.478a.16.16 0 0 1 .16-.159h.881c.088 0 .159.071.159.159a.24.24 0 0 0 .242.239h1.925a.24.24 0 0 0 .24-.239v-1.115a.24.24 0 0 0-.24-.238h-1.925a.24.24 0 0 0-.242.238.16.16 0 0 1-.159.159l-.881.001a.16.16 0 0 1-.16-.16v-1.273c0-.088.073-.16.16-.16h2.485a.16.16 0 0 1 .16.16v.398c0 .131.109.239.241.239h2.724a.24.24 0 0 0 .241-.239v-1.115a.24.24 0 0 0-.241-.238h-7.932a.24.24 0 0 0-.24.238v1.911a.24.24 0 0 0 .24.239c.089 0 .16.071.16.158v1.275a.16.16 0 0 1-.16.159.24.24 0 0 0-.24.238v1.911a.24.24 0 0 0 .24.239" style="fill:#0068b0;fill-rule:nonzero" transform="translate(-110.926 -26.573)"/></svg>

<?xml version="1.0" encoding="UTF-8" standalone="no"?>
<!DOCTYPE svg PUBLIC "-//W3C//DTD SVG 1.1//EN" "http://www.w3.org/Graphics/SVG/1.1/DTD/svg11.dtd">
<svg width="100%" height="100%" viewBox="0 0 28 7" version="1.1" xmlns="http://www.w3.org/2000/svg" xmlns:xlink="http://www.w3.org/1999/xlink" xml:space="preserve" xmlns:serif="http://www.serif.com/" style="fill-rule:evenodd;clip-rule:evenodd;stroke-linejoin:round;stroke-miterlimit:2;">
    <g transform="matrix(1,0,0,1,-0.13229,-0.132292)">
        <g>
            <g>
                <g transform="matrix(1,0,0,1,-110.794,-26.4409)">
                    <path d="M118.698,32.941C118.831,32.941 118.939,32.834 118.939,32.702L118.939,29.199C118.939,29.068 118.831,28.96 118.698,28.961L114.292,28.961C114.203,28.961 114.132,28.89 114.132,28.801L114.132,27.528C114.132,27.44 114.203,27.368 114.292,27.368L115.574,27.368C115.662,27.368 115.733,27.44 115.733,27.528L115.733,27.926C115.733,28.057 115.841,28.165 115.975,28.165L117.897,28.165C118.029,28.165 118.138,28.057 118.138,27.926L118.138,26.811C118.138,26.68 118.029,26.573 117.897,26.573L111.967,26.573C111.835,26.573 111.727,26.68 111.727,26.811L111.727,29.517C111.727,29.65 111.835,29.757 111.967,29.757L116.375,29.757C116.463,29.757 116.535,29.828 116.535,29.916L116.535,31.986C116.535,32.073 116.463,32.145 116.375,32.145L113.49,32.145C113.402,32.145 113.331,32.073 113.331,31.986L113.331,30.791C113.331,30.659 113.222,30.553 113.09,30.553L111.168,30.553C111.035,30.553 110.926,30.659 110.926,30.791L110.926,32.702C110.926,32.834 111.035,32.941 111.168,32.941" style="fill:rgb(0,104,176);fill-rule:nonzero;"/>
                </g>
                <g transform="matrix(1,0,0,1,-110.794,-26.4409)">
                    <path d="M122.944,30.654C122.944,30.632 122.962,30.614 122.984,30.614C122.995,30.614 123.005,30.618 123.012,30.625C123.02,30.632 125.254,32.853 125.273,32.873C125.286,32.885 125.345,32.941 125.441,32.941L128.311,32.941C128.444,32.941 128.553,32.834 128.553,32.702L128.553,30.792C128.553,30.661 128.444,30.554 128.311,30.554L126.24,30.554C126.148,30.554 126.089,30.503 126.075,30.488C126.045,30.459 124.574,28.996 124.567,28.989C124.559,28.981 124.555,28.971 124.555,28.961C124.555,28.949 124.559,28.94 124.567,28.933C124.574,28.926 125.256,28.245 125.268,28.233C125.308,28.195 125.367,28.165 125.437,28.165L127.511,28.165C127.643,28.165 127.751,28.057 127.751,27.926L127.751,26.811C127.751,26.68 127.643,26.573 127.511,26.573L125.441,26.573C125.345,26.573 125.286,26.627 125.273,26.64C125.261,26.653 123.019,28.881 123.012,28.888C123.005,28.896 122.995,28.9 122.984,28.9C122.963,28.9 122.944,28.881 122.944,28.859L122.944,26.811C122.944,26.68 122.836,26.573 122.704,26.573L120.381,26.573C120.249,26.573 120.141,26.68 120.141,26.811L120.141,28.722C120.141,28.854 120.249,28.961 120.381,28.961C120.47,28.961 120.541,29.032 120.541,29.119L120.541,30.394C120.541,30.482 120.47,30.553 120.381,30.553C120.249,30.553 120.141,30.659 120.141,30.791L120.141,32.702C120.141,32.834 120.249,32.941 120.381,32.941L122.704,32.941C122.836,32.941 122.944,32.834 122.944,32.702" style="fill:rgb(0,104,176);fill-rule:nonzero;"/>
                </g>
                <g transform="matrix(1,0,0,1,-110.794,-26.4409)">
                    <path d="M132.316,32.941C132.449,32.941 132.557,32.834 132.557,32.702L132.557,30.791C132.557,30.659 132.449,30.553 132.316,30.553C132.229,30.553 132.156,30.482 132.156,30.394L132.156,29.916C132.156,29.828 132.229,29.757 132.316,29.757L133.197,29.757C133.285,29.757 133.356,29.828 133.356,29.916C133.356,30.048 133.465,30.155 133.598,30.155L135.523,30.155C135.656,30.155 135.763,30.048 135.763,29.916L135.763,28.801C135.763,28.67 135.656,28.563 135.523,28.563L133.598,28.563C133.465,28.563 133.356,28.67 133.356,28.801C133.356,28.89 133.285,28.96 133.197,28.96L132.316,28.961C132.229,28.961 132.156,28.89 132.156,28.801L132.156,27.528C132.156,27.44 132.229,27.368 132.316,27.368L134.801,27.368C134.89,27.368 134.961,27.44 134.961,27.528L134.961,27.926C134.961,28.057 135.07,28.165 135.202,28.165L137.926,28.165C138.059,28.165 138.167,28.057 138.167,27.926L138.167,26.811C138.167,26.68 138.059,26.573 137.926,26.573L129.994,26.573C129.861,26.573 129.754,26.68 129.754,26.811L129.754,28.722C129.754,28.854 129.861,28.961 129.994,28.961C130.083,28.961 130.154,29.032 130.154,29.119L130.154,30.394C130.154,30.482 130.083,30.553 129.994,30.553C129.861,30.553 129.754,30.659 129.754,30.791L129.754,32.702C129.754,32.834 129.861,32.941 129.994,32.941" style="fill:rgb(0,104,176);fill-rule:nonzero;"/>
                </g>
            </g>
        </g>
    </g>
</svg>
